!!!COM: Lewis Capaldi
!!!OTL: Someone You Loved
**kern
*part1
*staff1
*
*
*clefG2
*k[b-e-a-d-g-]
*D-:
*M4/4
*MM60
=1
!LO:TX:a:t=[eighth]=120
16ffLL
16a-
16ff
16a-JJ
16ffLL
16a-
16ff
16a-JJ
16ccLL
16e-
16cc
16e-JJ
16ccLL
16e-
16cc
16e-JJ
=2
16dd-LL
16f
16dd-
16fJJ
16dd-LL
16f
16dd-
16fJJ
16b-LL
16d-
16b-
16d-JJ
16b-LL
16d-
16b-
16d-JJ
!!linebreak:original
=3
16r
16a-LL
16a-
16fJJ
16a-LL
16f
16a-
16fJJ
16b-LL
16cc
16b-
16a-JJ
16a-LL
16b-
16a-
[16fJJ
=4
16fLL]
16e-J
8e-J
4r
2r
=5
16r
16a-LL
16a-
16fJJ
16a-LL
16f
16a-
16fJJ
16b-LL
16cc
16b-
16a-JJ
16a-LL
16b-
16a-
[16fJJ
!!linebreak:original
=6
16fLL]
16e-J
8e-J
4r
16r
16b-LL
16b-
16a-JJ
16b-LL
16a-
16a-
16ffJJ
=7
8.ffL
16a-Jk
16b-LL
16a-
16ff
16ee-JJ
8.ee-L
16a-Jk
16a-LL
16a-
16a-
16dd-JJ
=8
8.ee-L
16ffJk
16ffLL
16ee-
16dd-
16b-JJ
8.a-L
16a-Jk
16b-LL
16a-
16a-
16ffJJ
!!linebreak:original
=9
8.ffL
16a-Jk
16b-LL
16a-
16ff
16ee-JJ
8.ee-L
16ffJk
16ffLL
16ff
16ff
16ffJJ
=10
16ffLL
16ee-
16ee-
16dd-JJ
16dd-LL
16ee-
16ee-
16ee-JJ
8ee-L
16dd-L
16dd-JJ
8b-L 8gg-
([8a-J [8ff
=11
8a-L]) 8ff]
16dd-L
16dd-JJ
8b- 8dd- 8gg-
4a- 4dd- 4ff
16dd-LL
16dd-JJ
8a-L 8cc 8gg-
16ffL
[16ee-JJ
!!linebreak:original
=12
16ee-LL]
16dd-
16dd-
16dd-JJ
16dd-LL 16ff 16aa-
16ffJ 16aa-
8ffJ
16r
16dd-LL
16dd-
16dd-JJ
8b-L 8dd- 8gg-
8a-J 8dd- 8ff
=13
16r
16dd-LL
16dd-
16dd-JJ
16b-LL 16dd- 16gg-
16dd- 16gg-
16a-J 16ff
8a- 8ee-
16ffL
16ff
16ffJJ
16a-LL 16ff
16ff
16ff
16ffJJ
=14
8b-L 8ff
16ee-L
16ee-JJ
16dd-LL
16dd-
16ee-
16ee-JJ
2a- 2cc 2ee-
!!pagebreak:original
=15
16r
16a-LL
16a-
16fJJ
16a-LL
16f
16a-
16fJJ
16b-LL
16cc
16b-
16a-JJ
16a-LL
16b-
16a-
16fJJ
=16
(16fLL
16e-JJ
2e-)
8r
4r
!!linebreak:original
=17
16r
16a-LL
16a-
16fJJ
16a-LL
16f
16a-
16fJJ
16b-LL
16cc
16b-
16a-JJ
16a-LL
16b-
16a-
16fJJ
=18
(16fLL
16e-J
8e-J)
4r
16r
16b-LL
16b-
16a-JJ
16b-LL
16a-
16a-
16ffJJ
!!linebreak:original
=19
8.ffL
16a-Jk
16b-LL
16a-
16ff
16ee-JJ
8.ee-L
16a-Jk
16a-LL
16a-
16a-
16dd-JJ
=20
8.ee-L
16ffJk
16ffLL
16ee-
16dd-
16b-JJ
8.a-L
16a-Jk
16b-LL
16a-
16a-
16ffJJ
!!linebreak:original
=21
8.ffL
32a-LL
32a-JJJ
16b-LL
16a-
16ff
16ee-JJ
8.ee-L
16ffJk
16ffLL
16ff
16ff
16ffJJ
=22
16ffLL
16ee-
16ee-
16dd-JJ
16dd-LL
16ee-
16ee-
16ee-JJ
8ee-L
16dd-L
16dd-JJ
8b-L 8dd- 8gg-
([8a-J [8dd- [8ff
!!linebreak:original
=23
8a-L]) 8dd-] 8ff]
16dd-L
16dd-JJ
8b- 8dd- 8gg-
4a- 4dd- 4ff
16dd-LL
16dd-JJ
8a-L 8cc 8gg-
16ffL
[16ee-JJ
=24
16ee-LL]
16dd-
16dd-
16dd-JJ
16b-LL 16dd- 16aa-
16aa-J
8ffJ
16r
16dd-LL
16dd-
16dd-JJ
8b-L 8dd- 8gg-
8a-J 8dd- 8ff
!!linebreak:original
=25
16r
16dd-LL
16dd-
16dd-JJ
16b-LL 16dd- 16gg-
16gg-
16a-J 16dd- 16ff
8ee-
16ffL
16ff
16ffJJ
16ffLL
16ff
16ff
16ffJJ
=26
8b-L 8ff
16ee-L
16ee-JJ
16dd-LL
16dd-
16g- 16ee-
16ee-JJ
2a- 2ee-
!!pagebreak:original
=27
4b-: 4ee-: 4gg-: 4bb-:
16bb-LL
16bb-J
8b-J 8dd- 8bb-
8dd-L 8aa-
8b-J 8dd- 8aa-
16ffLL
16ffJ
(8a-J 8cc 8ff
=28
16a-LL) 16cc 16ff
16ee-J
8a-J 8cc 8ee-
8ffL
8a-J 8ee- 8gg-
8a-L 8ff
8a-J 8ee-
4f 4dd-
!!linebreak:original
=29
4b-: 4ee-: 4gg-: 4bb-:
16bb-LL
16bb-J
8b-J 8dd- 8bb-
8dd-L 8aa-
8b-J 8dd- 8aa-
16ffLL
16ffJ
8a-J 8cc [8ff
=30
16a-KL 16cc 16ff]
8.ee-J
2.ee-
=31
16dd-LL
16dd-
16dd-JJ
4gg-
4.ff
16dd-KL
8dd-J
!!linebreak:original
=32
16gg-
4ff
16dd-KL
8dd-J
8gg-L
8.ff
16ee-L
16dd-
16dd-JJ
=33
16gg-LL
16gg-J
8ffJ
8r
16dd-LL
16dd-JJ
8b- 8gg-
4a- 4ff
16dd-LL
16dd-JJ
=34
8.a-L 8.gg-
16a-Jk 16ff
8ee-L
16ffL
16ffJJ
16a-LL 16ff
16ff
16ff
16ffJJ
16a-LL 16dd- 16ff
16ee-
16ee-
16dd-JJ
!!linebreak:original
=35
16a-LL 16dd-
16ee-
16a-J 16ee-
8.a- 8.ee-
16dd-L
16dd-JJ
8g- 8dd- 8gg-
4f 4dd- 4ff
16dd-LL
16dd-JJ
=36
8g- 8dd- 8gg-
4f 4dd- 4ff
16dd-LL
16dd-JJ
8g-L 8dd- 8gg-
16fk 16ff
8e- 8ee-
16dd-L
16dd-
16dd-JJ
!!linebreak:original
=37
16a-LL 16aa-
16a-JJ 16aa-
4f 4dd- 4ff
16dd-LL
16dd-JJ
8g-L 8dd- 8gg-
8fJ 8dd- 8ff
8r
16dd-LL
16dd-JJ
=38
8g-L 8dd- 8gg-
16d-k 16ff
8.e- 8.ee-
16ffL
16ffJJ
16ffLL
16ff
16ff
16ffJJ
16fLL 16dd- 16ff
16ee-
16ee-
16dd-JJ
!!linebreak:original
=39
16dd-LL
16ee-
16ee-J
8g- 8ee-
16dd-L
16dd-
16dd-JJ
8b-L 8gg-
8a-J 8ff
16r
16r
16dd-LL
16dd-JJ
=40
8gg-L
8ffJ
16r
16r
16ffLL
16ffJJ
16ffLL
16ff
16ff
16ffJJ
8b-L 8ff
8ee-J
=41
16ee-LL
16dd-
16dd-
16ee-JJ
16ee-KL
[8.ee-J
2ee-_
=42
2ee-]
2dd-
=43
1r
==
*-
!!!system-decoration: {(s1,s2)}
